X:4404
T:Moving cloud
O:england
M:4/4
L:1/8
Q:1/4=180
K:F
FD |: "F" CFAF "Db+" _DFAF | "F" CFAF "Dm" GFDF | "Bb6" GB (3BcB "Bb7"
Acfa | "C7" gfdc AGFD |
"F" CFAF "Db+" _DFAF | "F" CFAF GFDF | "Bb6" GABc "Bb7" dgfd |1 "C7"
cAGA "F" FGFD :|2 "C7" cAGA "F" FGAB |:
"F" c2 fc acfc | (3ccc ac gcfc | "Gm" d2 gd bdad | "Bb6" (3ddd "C7" bg
agfd |
"F" c2 fc acfc | "F" (3ccc ac gcfa | "Bb6" bagf "Bb7" agfd |1 "C7" cAGA
"F" FGAB :|2 "C7" cAGA "F" F|


